X: 1322
T: Cecil Chapman's Dad's Polka
B: australian traditional tunes wiki
M:2/4
L:1/16
Q: 1/4=100
K:D
V:1 
||"D" D2F2 A2AA|"G"B2B2 "D"A4|"G"B2A2 "D"F2D2|F2"A7"E2E4|"D"D2A2 A2AA|"G"B2B2 "D"A4|"G"B2A2 "D"F2D2|"A7"F2E2 "D"D4||
||"D"d2d2 "A7"c2Bc|"D"B2B2 A4|"G"B2A2 "D"F2D2|F2"A7"E2 E4|"D"d2d2 "A7"c2Bc|"D"d2d2A4|"G"B2A2 "D"F2D2|"A7"F2E2"D"D4||
% abcbook-tune_id 6342d53aaf82ef7fa18d4406


% abcbook-boost 0
% abcbook-tablature 
% abcbook-transpose 
% abcbook-lastupdated 1665324359123
% abcbook-soundfonts 
% abcbook-repeats 1
% NFF Book 2013

